!!!COM: Beethoven
!!!OTL: 32 Variationen fur das pianoforte
!!!Variation: Variation 31 a
**function	**harm	**kern	**kern
*	*	*clefF4	*clefG2
*	*	*k[b-e-a-]	*k[b-e-a-]
*M3/4	*M3/4	*M3/4	*M3/4
*c:	*c:	*c:	*c:
=249	=249	=249	=249
2.T	2.i	(32CCLLL	4r
.	.	32EE-	.
.	.	32GG	.
.	.	32CJJ)	.
.	.	(32CCLL	.
.	.	32EE-	.
.	.	32GG	.
.	.	32CJJJ)	.
.	.	(32CCLLL	4..c 4..cc
.	.	32EE-	.
.	.	32GG	.
.	.	32CJJ)	.
.	.	(32CCLL	.
.	.	32EE-	.
.	.	32GG	.
.	.	32CJJJ)	.
.	.	(32CCLLL	.
.	.	32EE-	.
.	.	32GG	.
.	.	32CJJ)	.
.	.	(32CCLL	.
.	.	32EE-	.
.	.	32GG	16e- 16ee-
.	.	32CJJJ)	.
=250	=250	=250	=250
2.T	2.V7	(40CCLLL	8d 8dd
.	.	40DD	.
.	.	40FF	.
.	.	40GG	.
.	.	40BBJJ)	.
.	.	(40CCLL	8r
.	.	40DD	.
.	.	40FF	.
.	.	40GG	.
.	.	40BBJJJ)	.
.	.	(40CCLLL	4.g
.	.	40DD	.
.	.	40FF	.
.	.	40GG	.
.	.	40BBJJ)	.
.	.	(40CCLL	.
.	.	40DD	.
.	.	40FF	.
.	.	40GG	.
.	.	40BBJJJ)	.
.	.	(40CCLLL	.
.	.	40DD	.
.	.	40FF	.
.	.	40GG	.
.	.	40BBJJ)	.
.	.	(40CCLL	(40gLLL
.	.	40DD	40a
.	.	40FF	40b
.	.	40GG	40cc
.	.	40BBJJJ)	40ddJJJ)
=251	=251	=251	=251
2.T	2.V7/IV	(40CCLLL	8ee
.	.	40EE	.
.	.	40GG	.
.	.	40BB-	.
.	.	40CJJ)	.
.	.	(40CCLL	8r
.	.	40EE	.
.	.	40GG	.
.	.	40BB-	.
.	.	40CJJJ)	.
.	.	(40CCLLL	4..e 4..ee
.	.	40EE	.
.	.	40GG	.
.	.	40BB-	.
.	.	40CJJ)	.
.	.	(40CCLL	.
.	.	40EE	.
.	.	40GG	.
.	.	40BB-	.
.	.	40CJJJ)	.
.	.	(40CCLLL	.
.	.	40EE	.
.	.	40GG	.
.	.	40BB-	.
.	.	40CJJ)	.
.	.	(40CCLL	.
.	.	40EE	.
.	.	40GG	.
.	.	.	16g 16gg
.	.	40BB-	.
.	.	40CJJJ)	.
=252	=252	=252	=252
2.T	2.IVc	(32CCLLL	8f 8ff
.	.	32FF	.
.	.	32AA	.
.	.	32CJJ)	.
.	.	(32CCLL	8r
.	.	32FF	.
.	.	32AA	.
.	.	32CJJJ)	.
.	.	(32CCLLL	4.f
.	.	32FF	.
.	.	32AA	.
.	.	32CJJ)	.
.	.	(32CCLL	.
.	.	32FF	.
.	.	32AA	.
.	.	32CJJJ)	.
.	.	(32CCLLL	.
.	.	32FF	.
.	.	32AA	.
.	.	32CJJ)	.
.	.	(32CCLL	(32ccLLL
.	.	32FF	32dd
.	.	32AA	32ee
.	.	32CJJJ)	32ffJJJ)
=253	=253	=253	=253
2.T	2.viioD7c/V	(40CCLLL	8f# 8ff#
.	.	40EE-	.
.	.	40FF#	.
.	.	40AA	.
.	.	40CJJ)	.
.	.	(40CCLL	8r
.	.	40EE-	.
.	.	40FF#	.
.	.	40AA	.
.	.	40CJJJ)	.
.	.	(40CCLLL	4.f#
.	.	40EE-	.
.	.	40FF#	.
.	.	40AA	.
.	.	40CJJ)	.
.	.	(40CCLL	.
.	.	40EE-	.
.	.	40FF#	.
.	.	40AA	.
.	.	40CJJJ)	.
.	.	(40CCLLL	.
.	.	40EE-	.
.	.	40FF#	.
.	.	40AA	.
.	.	40CJJ)	.
.	.	(40CCLL	(32ccLLL
.	.	40EE-	.
.	.	.	32dd
.	.	40FF#	.
.	.	.	32ee-
.	.	40AA	.
.	.	.	32ff#JJJ
.	.	40CJJJ)	.
=254	=254	=254	=254
4T	4V7/IV	(40CCLLL	8gg)
.	.	40EE	.
.	.	40GG	.
.	.	40BB-	.
.	.	40CJJ)	.
.	.	(40CCLL	8r
.	.	40EE	.
.	.	40GG	.
.	.	40BB-	.
.	.	40CJJJ)	.
2P	2ivc	(32CCLLL	2a- 2aa-
.	.	32FF	.
.	.	32AA-	.
.	.	32CJJ)	.
.	.	(32CCLL	.
.	.	32FF	.
.	.	32AA-	.
.	.	32CJJJ)	.
.	.	(32CCLLL	.
.	.	32FF	.
.	.	32AA-	.
.	.	32CJJ)	.
.	.	(32CCLL	.
.	.	32FF	.
.	.	32AA-	.
.	.	32CJJJ)	.
=255	=255	=255	=255
4D	4viioD7	(40CCLLL	8.r
.	.	40DD	.
.	.	40FF	.
.	.	40AA-	.
.	.	40BBJJ)	.
.	.	(40CCLL	.
.	.	40DD	.
.	.	40FF	.
.	.	.	16a- 16aa-
.	.	40AA-	.
.	.	40BBJJJ)	.
2D	2V7	(40CCLLL	8f 8ff
.	.	40DD	.
.	.	40FF	.
.	.	40GG	.
.	.	40BBJJ)	.
.	.	(40CCLL	8r
.	.	40DD	.
.	.	40FF	.
.	.	40GG	.
.	.	40BBJJJ)	.
.	.	(40CCLLL	8g 8gg
.	.	40DD	.
.	.	40FF	.
.	.	40GG	.
.	.	40BBJJ)	.
.	.	(40CCLL	8r
.	.	40DD	.
.	.	40FF	.
.	.	40GG	.
.	.	40BBJJJ)	.
=256	=256	=256	=256
2.T	2.i	(32CCLLL	(28ccLL
.	.	32EE-	.
.	.	.	28b
.	.	32GG	.
.	.	.	28a
.	.	32CJJ)	.
.	.	.	28g
.	.	32CCLL	.
.	.	.	28f
.	.	32EE-	.
.	.	.	28e-
.	.	32GG	.
.	.	.	28dJJ)
.	.	32CJJJ	.
.	.	32CCLLL	(28cLL
.	.	32EE-	.
.	.	.	28d
.	.	32GG	.
.	.	.	28e-
.	.	32CJJ	.
.	.	.	28f
.	.	32CCLL	.
.	.	.	28g
.	.	32EE-	.
.	.	.	28a
.	.	32GG	.
.	.	.	28bJJ)
.	.	32CJJJ	.
.	.	32CCLLL	(28ccLL
.	.	32EE-	.
.	.	.	28dd
.	.	32GG	.
.	.	.	28ee-
.	.	32CJJ	.
.	.	.	28ff
.	.	32CCLL	.
.	.	.	28gg
.	.	32EE-	.
.	.	.	28aa
.	.	32GG	.
.	.	.	28bbJJ)
.	.	32CJJJ	.
*-	*-	*-	*-
